X:357
T:Tommy Peoples'
Z: id:dc-reel-333
M:C
L:1/8
K:B Minor
B3c dBAF|B3c dfec|B3c dcdB|ABde fdec:|!
K:D Major
dfaf bfaf|dfaf g2fg|afge dedB|ABde fdec:|!

